twotone/svg/announcement.svg

<svg xmlns="http://www.w3.org/2000/svg" width="24" height="24"><path fill="none" d="M0 0h24v24H0V0z"/><g fill="currentColor"><path opacity=".3" d="M4 4v13.17l.59-.59.58-.58H20V4H4zm9 11h-2v-2h2v2zm0-4h-2V5h2v6z"/><path d="M20 2H4c-1.1 0-2 .9-2 2v18l4-4h14c1.1 0 2-.9 2-2V4c0-1.1-.9-2-2-2zm0 14H5.17l-.59.59-.58.58V4h16v12z"/><path d="M11 5h2v6h-2zM11 13h2v2h-2z"/></g></svg>

<?xml version="1.0" encoding="utf-8"?>
<!-- Generator: Adobe Illustrator 19.1.0, SVG Export Plug-In . SVG Version: 6.00 Build 0)  -->
<svg version="1.1" xmlns="http://www.w3.org/2000/svg" xmlns:xlink="http://www.w3.org/1999/xlink" x="0px" y="0px" width="24px"
	 height="24px" viewBox="0 0 24 24" enable-background="new 0 0 24 24" xml:space="preserve">
<g id="Header_x2F_BG" display="none">
	<rect x="-358" y="-94" display="inline" fill="#F1F1F2" width="520" height="520"/>
</g>
<g id="Bounding_Boxes">
	<g id="ui_x5F_spec_x5F_header_copy_3">
	</g>
	<path fill="none" d="M0,0h24v24H0V0z"/>
</g>
<g id="Rounded" display="none">
	<g id="ui_x5F_spec_x5F_header_copy_5" display="inline">
	</g>
	<path display="inline" d="M20,2H4C2.9,2,2,2.9,2,4v18l4-4h14c1.1,0,2-0.9,2-2V4C22,2.9,21.1,2,20,2z M12,11L12,11
		c-0.55,0-1-0.45-1-1V6c0-0.55,0.45-1,1-1h0c0.55,0,1,0.45,1,1v4C13,10.55,12.55,11,12,11z M13,15h-2v-2h2V15z"/>
</g>
<g id="Sharp" display="none">
	<g id="ui_x5F_spec_x5F_header_copy_4" display="inline">
	</g>
	<path display="inline" d="M22,2H2v20l4-4h16V2z M13,11h-2V5h2V11z M13,15h-2v-2h2V15z"/>
</g>
<g id="Outline" display="none">
	<g id="ui_x5F_spec_x5F_header" display="inline">
	</g>
	<g display="inline">
		<path d="M20,2H4C2.9,2,2,2.9,2,4v18l4-4h14c1.1,0,2-0.9,2-2V4C22,2.9,21.1,2,20,2z M20,16H5.17L4,17.17V4h16V16z"/>
		<rect x="11" y="5" width="2" height="6"/>
		<rect x="11" y="13" width="2" height="2"/>
	</g>
</g>
<g id="Duotone" fill="currentColor">
	<g id="ui_x5F_spec_x5F_header_copy_2">
	</g>
	<g>
		<path opacity="0.3" d="M4,4v13.17l0.59-0.59L5.17,16H6h14V4H4z M13,15h-2v-2h2V15z M13,11h-2V5h2V11z"/>
		<g>
			<path d="M20,2H4C2.9,2,2,2.9,2,4v18l4-4h14c1.1,0,2-0.9,2-2V4C22,2.9,21.1,2,20,2z M20,16H6H5.17l-0.59,0.59L4,17.17V4h16V16z"/>
			<rect x="11" y="5" width="2" height="6"/>
			<rect x="11" y="13" width="2" height="2"/>
		</g>
	</g>
</g>
<g id="Fill" display="none">
	<g id="ui_x5F_spec_x5F_header_copy" display="inline">
	</g>
	<path display="inline" d="M20,2H4C2.9,2,2,2.9,2,4v18l4-4h14c1.1,0,2-0.9,2-2V4C22,2.9,21.1,2,20,2z M13,11h-2V5h2V11z M13,15h-2
		v-2h2V15z"/>
</g>
<g id="nyt_x5F_exporter_x5F_info" display="none">
</g>
</svg>
